X:1680
T:Marquis of Tullibardine, The
T:Maids of Tulla, The
B:Kerr's Merry Melodies Book 1
Z:Nigel Gatherer
O:Scotland
L:1/8
M:4/4
K:A
A/A/A cA eAAf|eAAa fedc|Bcde fBBg|aBBa gfea|
A/A/A cA eAAf|eAAa fedc|defa fecf|ecBc f2 eg||
aA A/A/A cAAf|aAAa fedc|bB B/B/B dBB^a|bBBa gfeg|
aA A/A/A cAAf|aAAa fedc|defa fecf|ecBc f2 ea|]
